X:1927
T:Bourrée patinée
R:Bourrée à 3 temps
C:trad
A:Morvan
O:France
Z:S. Piron
M:3/4
L:1/4
Q:1/4=190
K:C
c|ABc|d2 d/2e/2|fg/2f/2e/2d/2|ecc|
ABc|d2 d/2e/2|fg/2f/2e/2d/2|c2:|
|:e/2f/2|ggc'|g2 e/2f/2|g/2a/2g/2f/2e/2d/2|
ece/2f/2|ggc'|g2 e/2f/2|g/2a/2g/2f/2e/2d/2|c2:||


